<?xml version="1.0" encoding="UTF-8"?>
<map version="1.10" tiledversion="1.11.2" orientation="isometric" renderorder="right-down" compressionlevel="0" width="20" height="20" tilewidth="64" tileheight="32" infinite="0" nextlayerid="7" nextobjectid="51">
 <properties>
  <property name="Background" value="Custom"/>
  <property name="Background Animation" value="/server/assets/backgrounds/02-nettonohp.animation"/>
  <property name="Background Texture" value="/server/assets/backgrounds/02-nettonohp.png"/>
  <property name="Background Vel X" type="float" value="0.115"/>
  <property name="Background Vel Y" type="float" value="0.065"/>
  <property name="Name" value="TestArea1"/>
  <property name="Song" value="/server/assets/loop1.ogg"/>
 </properties>
 <tileset firstgid="1" source="../assets/tiles/floor.tsx"/>
 <tileset firstgid="4" source="../assets/tiles/warp.tsx"/>
 <tileset firstgid="10" source="../assets/tiles/hp_warp.tsx"/>
 <tileset firstgid="15" source="../assets/tiles/home_warp.tsx"/>
 <tileset firstgid="20" source="../assets/tiles/tree.tsx"/>
 <tileset firstgid="24" source="../assets/tiles/coffee.tsx"/>
 <tileset firstgid="28" source="../assets/tiles/gate.tsx"/>
 <tileset firstgid="33" source="../assets/tiles/cloud.tsx"/>
 <tileset firstgid="45" source="../assets/tiles/Custom_Central_Tiles.tsx"/>
 <layer id="1" name="Floor" width="20" height="20">
  <data encoding="csv">
2,2,2,0,0,0,0,0,0,0,0,0,0,0,0,0,0,0,0,0,
2,2,2,0,0,0,0,0,0,0,0,0,0,0,0,0,0,0,0,0,
2,2,2,0,0,0,2,2,2,0,0,0,0,0,0,0,0,0,0,0,
0,1,0,0,2147483649,1,2,2,2,0,0,0,0,0,0,0,0,0,0,0,
0,2147483649,0,0,1,0,2,2,2,0,0,0,0,0,0,0,0,0,0,0,
0,1,2147483649,1,2147483649,0,0,0,2147483687,0,0,0,0,0,0,0,0,0,0,0,
0,0,0,2147483687,1,2147483686,0,38,37,2147483689,0,0,0,0,0,0,0,0,0,0,
0,33,33,37,35,35,33,33,36,44,0,0,0,0,0,0,0,0,0,0,
0,33,33,36,34,34,33,33,36,43,0,0,0,0,0,0,0,0,0,0,
33,33,33,36,34,34,33,33,41,0,0,0,0,0,0,0,0,0,0,0,
0,0,0,47,47,47,0,0,0,0,0,0,0,0,0,0,0,0,0,0,
0,0,0,0,0,0,0,0,0,0,0,0,0,0,0,0,0,0,0,0,
0,0,0,0,0,0,0,0,0,0,0,0,0,0,0,0,0,0,0,0,
0,0,0,0,0,0,0,0,0,0,0,0,0,0,0,0,0,0,0,0,
0,0,0,0,0,0,0,0,0,0,0,0,0,0,0,0,0,0,0,0,
0,0,0,0,0,0,0,0,0,0,0,0,0,0,0,0,0,0,0,0,
0,0,0,0,0,0,0,0,0,0,0,0,0,0,0,0,0,0,0,0,
0,0,0,0,0,0,0,0,0,0,0,0,0,0,0,0,0,0,0,0,
0,0,0,0,0,0,0,0,0,0,0,0,0,0,0,0,0,0,0,0,
0,0,0,0,0,0,0,0,0,0,0,0,0,0,0,0,0,0,0,0
</data>
 </layer>
 <objectgroup id="5" name="Object Layer">
  <object id="18" gid="24" x="12.5" y="81.5" width="33" height="54"/>
  <object id="21" gid="20" x="233" y="131" width="44" height="61"/>
  <object id="29" gid="2147483676" x="189" y="113" width="34" height="52"/>
  <object id="44" name="Bot Spawn" x="80.5" y="81.5">
   <point/>
  </object>
  <object id="46" type="Home Warp" gid="15" x="128" y="256" width="60" height="32"/>
  <object id="47" gid="2147483668" x="44" y="46" width="44" height="61"/>
  <object id="48" gid="20" x="205" y="77" width="44" height="61"/>
  <object id="49" gid="20" x="270" y="110" width="44" height="61"/>
  <object id="50" name="FirstNPC" type="NPC" x="144" y="176">
   <properties>
    <property name="Asset Name" value="normal-navi-bn4_red"/>
    <property name="Dialogue Type" value="first"/>
    <property name="Direction" value="Down Left"/>
    <property name="Text 1" value="Hi there!"/>
   </properties>
   <point/>
  </object>
 </objectgroup>
</map>
